;FLAVOR:Marlin
;TIME:50918
;Filament used: 21.7858m
;Layer height: 0.12
;MINX:65.001
;MINY:19.271
;MINZ:0.12
;MAXX:170
;MAXY:65.271
;MAXZ:63.96
;Generated with Cura_SteamEngine 4.5.0
M140 S80
M105
M190 S80
M104 S260
M105
M109 S260
M82 ;absolute extrusion mode
; Ender 3 Custom Start G-code
G92 E0 ; Reset Extruder
G28 ; Home all axes
G1 Z2.0 F3000 ; Move Z Axis up little to prevent scratching of Heat Bed
G1 X0.1 Y20 Z0.3 F5000.0 ; Move to start position
G1 X0.1 Y200.0 Z0.3 F1500.0 E15 ; Draw the first line
G1 X0.4 Y200.0 Z0.3 F5000.0 ; Move to side a little
G1 X0.4 Y20 Z0.3 F1500.0 E30 ; Draw the second line
G92 E0 ; Reset Extruder
G1 Z2.0 F3000 ; Move Z Axis up little to prevent scratching of Heat Bed
G1 X5 Y20 Z0.3 F5000.0 ; Move over to prevent blob squish
G92 E0
G92 E0
G1 F2700 E-5
;LAYER_COUNT:533
;LAYER:0
M107
G0 F6000 X65.7 Y26.444 Z0.12
;TYPE:SKIRT
G1 F2700 E0
G1 F1200 X66.065 Y25.58 E0.01872
G1 X66.501 Y24.75 E0.03743
G1 X67.007 Y23.96 E0.05615
G1 X67.578 Y23.216 E0.07487
G1 X68.21 Y22.523 E0.09358
G1 X68.899 Y21.887 E0.11229
G1 X69.64 Y21.312 E0.13101
G1 X70.427 Y20.802 E0.14973
G1 X71.255 Y20.361 E0.16845
G1 X72.117 Y19.992 E0.18716
G1 X73.008 Y19.698 E0.20588
G1 X73.92 Y19.48 E0.2246
G1 X74.847 Y19.342 E0.2433
G1 X75.701 Y19.284 E0.26038
G1 X76.33 Y19.271 E0.27294
G1 X158.293 Y19.271 E1.9086
G1 X158.451 Y19.272 E1.91175
G1 X159.149 Y19.282 E1.92568
G1 X160.085 Y19.336 E1.94439
G1 X161.013 Y19.468 E1.9631
G1 X161.927 Y19.68 E1.98182
G1 X162.819 Y19.969 E2.00053
G1 X163.684 Y20.332 E2.01925
G1 X164.514 Y20.768 E2.03796
G1 X165.305 Y21.273 E2.05669
G1 X166.049 Y21.844 E2.07541
G1 X166.742 Y22.476 E2.09412
G1 X167.379 Y23.164 E2.11283
G1 X167.954 Y23.905 E2.13155
G1 X168.465 Y24.691 E2.15026
G1 X168.907 Y25.519 E2.16899
G1 X169.276 Y26.381 E2.1877
G1 X169.571 Y27.271 E2.20641
G1 X169.789 Y28.183 E2.22513
G1 X169.929 Y29.111 E2.24386
G1 X169.987 Y29.972 E2.26108
G1 X170 Y30.6 E2.27361
G1 X169.999 Y53.572 E2.73204
G1 X169.989 Y54.297 E2.74651
G1 X169.936 Y55.233 E2.76522
G1 X169.804 Y56.162 E2.78395
G1 X169.592 Y57.075 E2.80265
G1 X169.304 Y57.968 E2.82138
G1 X168.941 Y58.833 E2.8401
G1 X168.506 Y59.663 E2.8588
G1 X168.001 Y60.454 E2.87752
G1 X167.431 Y61.198 E2.89623
G1 X166.903 Y61.786 E2.912
G1 X166.791 Y61.902 E2.91522
G1 X166.112 Y62.548 E2.93392
G1 X165.38 Y63.134 E2.95263
G1 X164.6 Y63.656 E2.97136
G1 X163.779 Y64.109 E2.99007
G1 X162.922 Y64.491 E3.0088
G1 X162.036 Y64.798 E3.02751
G1 X161.127 Y65.029 E3.04623
G1 X160.202 Y65.181 E3.06493
G1 X159.075 Y65.259 E3.08748
G1 X158.321 Y65.271 E3.10253
G1 X76.824 Y65.271 E4.72889
G1 X76.667 Y65.27 E4.73202
G1 X75.966 Y65.26 E4.74601
G1 X75.03 Y65.207 E4.76472
G1 X74.101 Y65.074 E4.78345
G1 X73.188 Y64.862 E4.80215
G1 X72.295 Y64.574 E4.82088
G1 X71.431 Y64.21 E4.83959
G1 X70.6 Y63.774 E4.85832
G1 X69.81 Y63.269 E4.87703
G1 X69.066 Y62.699 E4.89573
G1 X68.379 Y62.074 E4.91427
G1 X68.266 Y61.962 E4.91744
G1 X67.629 Y61.274 E4.93615
G1 X67.053 Y60.534 E4.95487
G1 X66.541 Y59.748 E4.97359
G1 X66.099 Y58.921 E4.9923
G1 X65.728 Y58.059 E5.01103
G1 X65.433 Y57.169 E5.02974
G1 X65.214 Y56.257 E5.04845
G1 X65.074 Y55.33 E5.06716
G1 X65.013 Y54.409 E5.08558
G1 X65.005 Y54.071 E5.09233
G1 X65.003 Y53.652 E5.10069
G1 X65.027 Y51.996 E5.13374
G1 X65.027 Y49.361 E5.18633
G1 X65.001 Y48.068 E5.21214
G1 X65.001 Y30.78 E5.55714
G1 X65.011 Y30.115 E5.57041
G1 X65.065 Y29.178 E5.58914
G1 X65.199 Y28.25 E5.60785
G1 X65.411 Y27.336 E5.62657
G1 X65.7 Y26.444 E5.64529
G0 F6000 X66.099 Y26.52
G1 F1200 X66.463 Y25.675 E5.66365
G1 X66.898 Y24.864 E5.68201
G1 X67.403 Y24.093 E5.7004
G1 X67.972 Y23.37 E5.71877
G1 X68.602 Y22.698 E5.73715
G1 X69.288 Y22.084 E5.75552
G1 X70.024 Y21.532 E5.77388
G1 X70.806 Y21.045 E5.79226
G1 X71.627 Y20.629 E5.81063
G1 X72.481 Y20.285 E5.829
G1 X73.361 Y20.016 E5.84737
G1 X74.262 Y19.825 E5.86575
G1 X75.176 Y19.713 E5.88412
G1 X75.712 Y19.684 E5.89484
G1 X76.33 Y19.671 E5.90717
G1 X158.293 Y19.671 E7.54283
G1 X158.445 Y19.672 E7.54587
G1 X159.143 Y19.682 E7.5598
G1 X160.062 Y19.735 E7.57817
G1 X160.973 Y19.868 E7.59654
G1 X161.869 Y20.079 E7.61491
G1 X162.743 Y20.367 E7.63327
G1 X163.59 Y20.73 E7.65166
G1 X164.401 Y21.165 E7.67003
G1 X165.171 Y21.669 E7.68839
G1 X165.895 Y22.238 E7.70677
G1 X166.567 Y22.868 E7.72515
G1 X167.182 Y23.553 E7.74352
G1 X167.735 Y24.289 E7.76189
G1 X168.222 Y25.07 E7.78026
G1 X168.639 Y25.891 E7.79864
G1 X168.984 Y26.745 E7.81702
G1 X169.253 Y27.625 E7.83538
G1 X169.445 Y28.526 E7.85377
G1 X169.558 Y29.439 E7.87213
G1 X169.587 Y29.983 E7.883
G1 X169.6 Y30.6 E7.89531
G1 X169.599 Y53.566 E8.35362
G1 X169.589 Y54.291 E8.36809
G1 X169.536 Y55.21 E8.38646
G1 X169.404 Y56.121 E8.40483
G1 X169.193 Y57.018 E8.42322
G1 X168.906 Y57.892 E8.44158
G1 X168.543 Y58.738 E8.45995
G1 X168.108 Y59.55 E8.47833
G1 X167.605 Y60.321 E8.49671
G1 X167.037 Y61.045 E8.51507
G1 X166.504 Y61.624 E8.53077
G1 X165.836 Y62.258 E8.54915
G1 X165.116 Y62.831 E8.56752
G1 X164.349 Y63.34 E8.58589
G1 X163.54 Y63.781 E8.60427
G1 X162.697 Y64.149 E8.62263
G1 X161.824 Y64.443 E8.64101
G1 X160.93 Y64.661 E8.65938
G1 X160.019 Y64.799 E8.67776
G1 X159.068 Y64.859 E8.69678
G1 X158.321 Y64.871 E8.71169
G1 X76.824 Y64.871 E10.33805
G1 X76.673 Y64.87 E10.34106
G1 X75.972 Y64.86 E10.35505
G1 X75.053 Y64.807 E10.37342
G1 X74.142 Y64.674 E10.3918
G1 X73.246 Y64.463 E10.41017
G1 X72.371 Y64.175 E10.42855
G1 X71.525 Y63.812 E10.44692
G1 X70.714 Y63.377 E10.46529
G1 X69.943 Y62.873 E10.48367
G1 X69.219 Y62.304 E10.50204
G1 X68.661 Y61.79 E10.51718
G1 X68.548 Y61.678 E10.52036
G1 X67.923 Y61.002 E10.53873
G1 X67.359 Y60.274 E10.55711
G1 X66.86 Y59.5 E10.57549
G1 X66.43 Y58.686 E10.59386
G1 X66.073 Y57.838 E10.61222
G1 X65.79 Y56.962 E10.63059
G1 X65.584 Y56.064 E10.64898
G1 X65.458 Y55.152 E10.66735
G1 X65.413 Y54.4 E10.68238
G1 X65.405 Y54.062 E10.68913
G1 X65.403 Y53.657 E10.69721
G1 X65.427 Y52.001 E10.73026
G1 X65.427 Y49.352 E10.78313
G1 X65.401 Y48.068 E10.80876
G1 X65.401 Y30.786 E11.15364
G1 X65.411 Y30.121 E11.16691
G1 X65.465 Y29.202 E11.18528
G1 X65.598 Y28.291 E11.20365
G1 X65.81 Y27.395 E11.22203
G1 X66.099 Y26.52 E11.24042
G0 F6000 X66.498 Y26.598
G1 F1200 X66.861 Y25.771 E11.25844
G1 X67.295 Y24.98 E11.27645
G1 X67.798 Y24.229 E11.29448
G1 X68.366 Y23.527 E11.31251
G1 X68.993 Y22.877 E11.33053
G1 X69.675 Y22.285 E11.34855
G1 X70.407 Y21.756 E11.36657
G1 X71.183 Y21.294 E11.3846
G1 X71.997 Y20.903 E11.40262
G1 X72.842 Y20.584 E11.42064
G1 X73.712 Y20.342 E11.43866
G1 X74.6 Y20.178 E11.45668
G1 X75.723 Y20.084 E11.47917
G1 X76.33 Y20.071 E11.49129
G1 X158.293 Y20.071 E13.12695
G1 X158.439 Y20.072 E13.12986
G1 X159.137 Y20.082 E13.14379
G1 X160.039 Y20.135 E13.16182
G1 X160.932 Y20.267 E13.17984
G1 X161.81 Y20.478 E13.19786
G1 X162.666 Y20.766 E13.21588
G1 X163.493 Y21.128 E13.2339
G1 X164.285 Y21.563 E13.25193
G1 X165.036 Y22.065 E13.26996
G1 X165.739 Y22.632 E13.28798
G1 X166.389 Y23.259 E13.306
G1 X166.981 Y23.941 E13.32403
G1 X167.511 Y24.672 E13.34204
G1 X167.973 Y25.448 E13.36007
G1 X168.366 Y26.261 E13.37809
G1 X168.684 Y27.106 E13.39611
G1 X168.927 Y27.976 E13.41413
G1 X169.092 Y28.864 E13.43216
G1 X169.187 Y29.994 E13.45479
G1 X169.2 Y30.6 E13.46688
G1 X169.199 Y53.561 E13.92509
G1 X169.189 Y54.286 E13.93956
G1 X169.137 Y55.187 E13.95757
G1 X169.005 Y56.081 E13.97561
G1 X168.794 Y56.959 E13.99363
G1 X168.507 Y57.815 E14.01164
G1 X168.145 Y58.642 E14.02966
G1 X167.711 Y59.435 E14.0477
G1 X167.209 Y60.185 E14.06571
G1 X166.643 Y60.889 E14.08374
G1 X166.216 Y61.346 E14.09622
G1 X165.56 Y61.967 E14.11425
G1 X164.853 Y62.528 E14.13226
G1 X164.098 Y63.024 E14.15028
G1 X163.302 Y63.451 E14.16831
G1 X162.472 Y63.807 E14.18633
G1 X161.614 Y64.087 E14.20434
G1 X160.734 Y64.291 E14.22237
G1 X159.839 Y64.416 E14.24041
G1 X159.061 Y64.459 E14.25595
G1 X158.321 Y64.471 E14.27072
G1 X76.824 Y64.471 E15.89708
G1 X76.679 Y64.47 E15.89998
G1 X75.978 Y64.46 E15.91397
G1 X75.076 Y64.407 E15.932
G1 X74.183 Y64.275 E15.95001
G1 X73.304 Y64.064 E15.96805
G1 X72.448 Y63.776 E15.98608
G1 X71.621 Y63.414 E16.00409
G1 X70.829 Y62.98 E16.02212
G1 X70.079 Y62.477 E16.04014
G1 X69.376 Y61.91 E16.05816
G1 X68.83 Y61.393 E16.07317
G1 X68.217 Y60.73 E16.09119
G1 X67.665 Y60.015 E16.10921
G1 X67.179 Y59.254 E16.12723
G1 X66.762 Y58.453 E16.14525
G1 X66.418 Y57.618 E16.16328
G1 X66.149 Y56.756 E16.1813
G1 X65.957 Y55.873 E16.19933
G1 X65.844 Y54.977 E16.21735
G1 X65.813 Y54.39 E16.22908
G1 X65.805 Y54.052 E16.23583
G1 X65.803 Y53.663 E16.24359
G1 X65.827 Y52.007 E16.27664
G1 X65.827 Y49.389 E16.32889
G1 X65.801 Y48.068 E16.35525
G1 X65.801 Y30.792 E16.70002
G1 X65.811 Y30.127 E16.71329
G1 X65.865 Y29.225 E16.73132
G1 X65.998 Y28.332 E16.74934
G1 X66.209 Y27.454 E16.76736
G1 X66.498 Y26.598 E16.78539
G1 F2700 E11.78539
G0 F6000 X75.339 Y48.428
G0 X75.843 Y48.932
G0 X81.333 Y49.271
G1 F2700 E16.78539
G1 F1200 X158.8 Y49.271 E18.33133
G1 X158.8 Y54.071 E18.42711
G1 X76.2 Y54.071 E20.07549
G1 X76.2 Y53.471 E20.08746
G1 X79.218 Y53.471 E20.14769
G1 X79.329 Y53.437 E20.15
G1 X79.66 Y53.216 E20.15795
G1 X79.734 Y53.127 E20.16026
G1 X81.333 Y49.271 E20.24356
G0 F6000 X81.6 Y49.671
G1 F1200 X158.4 Y49.671 E21.77619
G1 X158.4 Y53.671 E21.85601
G1 X79.699 Y53.671 E23.42658
G1 X79.882 Y53.549 E23.43097
G1 X80.039 Y53.397 E23.43533
G1 X80.103 Y53.28 E23.43799
G1 X81.6 Y49.671 E23.51596
G0 F6000 X81.867 Y50.071
G1 F1200 X158 Y50.071 E25.03528
G1 X158 Y53.271 E25.09914
G1 X80.54 Y53.271 E26.64493
G1 X81.867 Y50.071 E26.71407
G0 F6000 X82.134 Y50.471
G1 F1200 X157.6 Y50.471 E28.22007
G1 X157.6 Y52.871 E28.26797
G1 X81.138 Y52.871 E29.79385
G1 X82.134 Y50.471 E29.8457
G0 F6000 X82.401 Y50.871
G1 F1200 X157.2 Y50.871 E31.3384
G1 X157.2 Y52.471 E31.37033
G1 X81.738 Y52.471 E32.87625
G1 X82.401 Y50.871 E32.91082
G0 F6000 X82.668 Y51.271
G1 F1200 X156.8 Y51.271 E34.3902
G1 X156.8 Y52.071 E34.40616
G1 X82.337 Y52.071 E35.89215
G1 X82.668 Y51.271 E35.90943
G1 F2700 E30.90943
;MESH:SSD-Holder.stl
G0 F6000 X82.668 Y48.936
G0 X82.668 Y47.851
G0 X77.4 Y46.871
;TYPE:WALL-INNER
G1 F2700 E35.90943
G1 F1200 X77.4 Y31.671 E36.21276
G1 X157.6 Y31.671 E37.81324
G1 X157.6 Y46.871 E38.11657
G1 X77.4 Y46.871 E39.71705
G0 F6000 X77 Y47.271
G1 F1200 X77 Y31.271 E40.03635
G1 X158 Y31.271 E41.65279
G1 X158 Y47.271 E41.97209
G1 X77 Y47.271 E43.58853
G0 F6000 X76.6 Y47.671
G1 F1200 X76.6 Y30.871 E43.92379
G1 X158.4 Y30.871 E45.5562
G1 X158.4 Y47.671 E45.89146
G1 X76.6 Y47.671 E47.52387
G0 F6000 X76.2 Y48.071
;TYPE:WALL-OUTER
G1 F1200 X76.2 Y30.471 E47.8751
G1 X158.8 Y30.471 E49.52347
G1 X158.8 Y48.071 E49.8747
G1 X76.2 Y48.071 E51.52307
G0 F6000 X76.47 Y47.801
G0 X77.51 Y46.481
G0 X77.79 Y46.481
;TYPE:SKIN
G1 F1200 X77.79 Y32.061 E51.81084
G1 X157.21 Y32.061 E53.39575
G1 X157.21 Y46.481 E53.68351
G1 X77.79 Y46.481 E55.26843
G0 F6000 X78.564 Y46.32
G1 F1200 X77.949 Y45.705 E55.28578
G0 F6000 X77.949 Y45.139
G1 F1200 X79.13 Y46.32 E55.31911
G0 F6000 X79.695 Y46.32
G1 F1200 X77.949 Y44.573 E55.3684
G0 F6000 X77.949 Y44.008
G1 F1200 X80.261 Y46.32 E55.43365
G0 F6000 X80.827 Y46.32
G1 F1200 X77.949 Y43.442 E55.51488
G0 F6000 X77.949 Y42.876
G1 F1200 X81.392 Y46.32 E55.61206
G0 F6000 X81.958 Y46.32
G1 F1200 X77.949 Y42.311 E55.7252
G0 F6000 X77.949 Y41.745
G1 F1200 X82.524 Y46.32 E55.85432
G0 F6000 X83.089 Y46.32
G1 F1200 X77.949 Y41.179 E55.9994
G0 F6000 X77.949 Y40.614
G1 F1200 X83.655 Y46.32 E56.16043
G0 F6000 X84.221 Y46.32
G1 F1200 X77.949 Y40.048 E56.33744
G0 F6000 X77.949 Y39.482
G1 F1200 X84.787 Y46.32 E56.53042
G0 F6000 X85.352 Y46.32
G1 F1200 X77.949 Y38.917 E56.73935
G0 F6000 X77.949 Y38.351
G1 F1200 X85.918 Y46.32 E56.96425
G0 F6000 X86.484 Y46.32
G1 F1200 X77.949 Y37.785 E57.20513
G0 F6000 X77.949 Y37.219
G1 F1200 X87.049 Y46.32 E57.46197
G0 F6000 X87.615 Y46.32
G1 F1200 X77.949 Y36.654 E57.73476
G0 F6000 X77.949 Y36.088
G1 F1200 X88.181 Y46.32 E58.02353
G0 F6000 X88.746 Y46.32
G1 F1200 X77.949 Y35.522 E58.32826
G0 F6000 X77.949 Y34.957
G1 F1200 X89.312 Y46.32 E58.64895
G0 F6000 X89.878 Y46.32
G1 F1200 X77.949 Y34.391 E58.98561
G0 F6000 X77.949 Y33.825
G1 F1200 X90.443 Y46.32 E59.33823
G0 F6000 X91.009 Y46.32
G1 F1200 X77.949 Y33.26 E59.70681
G0 F6000 X77.949 Y32.694
G1 F1200 X91.575 Y46.32 E60.09137
G0 F6000 X92.14 Y46.32
G1 F1200 X78.041 Y32.22 E60.48929
G0 F6000 X78.606 Y32.22
G1 F1200 X92.706 Y46.32 E60.88722
G0 F6000 X93.272 Y46.32
G1 F1200 X79.172 Y32.22 E61.28515
G0 F6000 X79.738 Y32.22
G1 F1200 X93.838 Y46.32 E61.68308
G0 F6000 X94.403 Y46.32
G1 F1200 X80.303 Y32.22 E62.08102
G0 F6000 X80.869 Y32.22
G1 F1200 X94.969 Y46.32 E62.47895
G0 F6000 X95.535 Y46.32
G1 F1200 X81.435 Y32.22 E62.87688
G0 F6000 X82.001 Y32.22
G1 F1200 X96.1 Y46.32 E63.2748
G0 F6000 X96.666 Y46.32
G1 F1200 X82.566 Y32.22 E63.67273
G0 F6000 X83.132 Y32.22
G1 F1200 X97.232 Y46.32 E64.07066
G0 F6000 X97.797 Y46.32
G1 F1200 X83.698 Y32.22 E64.46858
G0 F6000 X84.263 Y32.22
G1 F1200 X98.363 Y46.32 E64.86652
G0 F6000 X98.929 Y46.32
G1 F1200 X84.829 Y32.22 E65.26445
G0 F6000 X85.395 Y32.22
G1 F1200 X99.494 Y46.32 E65.66237
G0 F6000 X100.06 Y46.32
G1 F1200 X85.96 Y32.22 E66.0603
G0 F6000 X86.526 Y32.22
G1 F1200 X100.626 Y46.32 E66.45823
G0 F6000 X101.191 Y46.32
G1 F1200 X87.092 Y32.22 E66.85615
G0 F6000 X87.657 Y32.22
G1 F1200 X101.757 Y46.32 E67.25408
G0 F6000 X102.323 Y46.32
G1 F1200 X88.223 Y32.22 E67.65201
G0 F6000 X88.789 Y32.22
G1 F1200 X102.888 Y46.32 E68.04993
G0 F6000 X103.454 Y46.32
G1 F1200 X89.354 Y32.22 E68.44787
G0 F6000 X89.92 Y32.22
G1 F1200 X104.02 Y46.32 E68.8458
G0 F6000 X104.586 Y46.32
G1 F1200 X90.486 Y32.22 E69.24373
G0 F6000 X91.052 Y32.22
G1 F1200 X105.151 Y46.32 E69.64165
G0 F6000 X105.717 Y46.32
G1 F1200 X91.617 Y32.22 E70.03958
G0 F6000 X92.183 Y32.22
G1 F1200 X106.283 Y46.32 E70.43751
G0 F6000 X106.848 Y46.32
G1 F1200 X92.749 Y32.22 E70.83543
G0 F6000 X93.314 Y32.22
G1 F1200 X107.414 Y46.32 E71.23336
G0 F6000 X107.98 Y46.32
G1 F1200 X93.88 Y32.22 E71.6313
G0 F6000 X94.446 Y32.22
G1 F1200 X108.545 Y46.32 E72.02922
G0 F6000 X109.111 Y46.32
G1 F1200 X95.011 Y32.22 E72.42715
G0 F6000 X95.577 Y32.22
G1 F1200 X109.677 Y46.32 E72.82508
G0 F6000 X110.242 Y46.32
G1 F1200 X96.143 Y32.22 E73.223
G0 F6000 X96.708 Y32.22
G1 F1200 X110.808 Y46.32 E73.62093
G0 F6000 X111.374 Y46.32
G1 F1200 X97.274 Y32.22 E74.01886
G0 F6000 X97.84 Y32.22
G1 F1200 X111.939 Y46.32 E74.41678
G0 F6000 X112.505 Y46.32
G1 F1200 X98.405 Y32.22 E74.81471
G0 F6000 X98.971 Y32.22
G1 F1200 X113.071 Y46.32 E75.21265
G0 F6000 X113.637 Y46.32
G1 F1200 X99.537 Y32.22 E75.61058
G0 F6000 X100.102 Y32.22
G1 F1200 X114.202 Y46.32 E76.00851
G0 F6000 X114.768 Y46.32
G1 F1200 X100.668 Y32.22 E76.40644
G0 F6000 X101.234 Y32.22
G1 F1200 X115.334 Y46.32 E76.80438
G0 F6000 X115.899 Y46.32
G1 F1200 X101.8 Y32.22 E77.20229
G0 F6000 X102.365 Y32.22
G1 F1200 X116.465 Y46.32 E77.60023
G0 F6000 X117.031 Y46.32
G1 F1200 X102.931 Y32.22 E77.99816
G0 F6000 X103.497 Y32.22
G1 F1200 X117.596 Y46.32 E78.39608
G0 F6000 X118.162 Y46.32
G1 F1200 X104.062 Y32.22 E78.79401
G0 F6000 X104.628 Y32.22
G1 F1200 X118.728 Y46.32 E79.19194
G0 F6000 X119.293 Y46.32
G1 F1200 X105.194 Y32.22 E79.58986
G0 F6000 X105.759 Y32.22
G1 F1200 X119.859 Y46.32 E79.98779
G0 F6000 X120.425 Y46.32
G1 F1200 X106.325 Y32.22 E80.38573
G0 F6000 X106.891 Y32.22
G1 F1200 X120.99 Y46.32 E80.78364
G0 F6000 X121.556 Y46.32
G1 F1200 X107.456 Y32.22 E81.18158
G0 F6000 X108.022 Y32.22
G1 F1200 X122.122 Y46.32 E81.57951
G0 F6000 X122.687 Y46.32
G1 F1200 X108.588 Y32.22 E81.97743
G0 F6000 X109.153 Y32.22
G1 F1200 X123.253 Y46.32 E82.37536
G0 F6000 X123.819 Y46.32
G1 F1200 X109.719 Y32.22 E82.77329
G0 F6000 X110.285 Y32.22
G1 F1200 X124.385 Y46.32 E83.17123
G0 F6000 X124.95 Y46.32
G1 F1200 X110.851 Y32.22 E83.56914
G0 F6000 X111.416 Y32.22
G1 F1200 X125.516 Y46.32 E83.96708
G0 F6000 X126.082 Y46.32
G1 F1200 X111.982 Y32.22 E84.36501
G0 F6000 X112.548 Y32.22
G1 F1200 X126.647 Y46.32 E84.76293
G0 F6000 X127.213 Y46.32
G1 F1200 X113.113 Y32.22 E85.16086
G0 F6000 X113.679 Y32.22
G1 F1200 X127.779 Y46.32 E85.55879
G0 F6000 X128.344 Y46.32
G1 F1200 X114.245 Y32.22 E85.95671
G0 F6000 X114.81 Y32.22
