;FLAVOR:Marlin
;TIME:51302
;Filament used: 22.7617m
;Layer height: 0.12
;MINX:65.001
;MINY:31.108
;MINZ:0.12
;MAXX:170
;MAXY:77.108
;MAXZ:63.96
;Generated with Cura_SteamEngine 4.5.0
M140 S50
M105
M190 S50
M104 S200
M105
M109 S200
M82 ;absolute extrusion mode
; Ender 3 Custom Start G-code
G92 E0 ; Reset Extruder
G28 ; Home all axes
G1 Z2.0 F3000 ; Move Z Axis up little to prevent scratching of Heat Bed
G1 X0.1 Y20 Z0.3 F5000.0 ; Move to start position
G1 X0.1 Y200.0 Z0.3 F1500.0 E15 ; Draw the first line
G1 X0.4 Y200.0 Z0.3 F5000.0 ; Move to side a little
G1 X0.4 Y20 Z0.3 F1500.0 E30 ; Draw the second line
G92 E0 ; Reset Extruder
G1 Z2.0 F3000 ; Move Z Axis up little to prevent scratching of Heat Bed
G1 X5 Y20 Z0.3 F5000.0 ; Move over to prevent blob squish
G92 E0
G92 E0
G1 F2700 E-5
;LAYER_COUNT:533
;LAYER:0
M107
G0 F6000 X66.501 Y36.587 Z0.12
;TYPE:SKIRT
G1 F2700 E0
G1 F1200 X67.007 Y35.797 E0.01872
G1 X67.578 Y35.053 E0.03744
G1 X68.21 Y34.36 E0.05615
G1 X68.899 Y33.724 E0.07487
G1 X69.64 Y33.149 E0.09358
G1 X70.427 Y32.639 E0.1123
G1 X71.255 Y32.198 E0.13102
G1 X72.117 Y31.829 E0.14973
G1 X73.008 Y31.535 E0.16846
G1 X73.92 Y31.317 E0.18717
G1 X74.847 Y31.179 E0.20587
G1 X75.701 Y31.121 E0.22295
G1 X76.33 Y31.108 E0.23551
G1 X158.293 Y31.108 E1.87117
G1 X158.451 Y31.109 E1.87432
G1 X159.149 Y31.119 E1.88825
G1 X160.085 Y31.173 E1.90696
G1 X161.013 Y31.305 E1.92567
G1 X161.927 Y31.517 E1.94439
G1 X162.819 Y31.806 E1.9631
G1 X163.684 Y32.169 E1.98182
G1 X164.514 Y32.605 E2.00053
G1 X165.305 Y33.11 E2.01926
G1 X166.049 Y33.681 E2.03798
G1 X166.742 Y34.313 E2.0567
G1 X167.379 Y35.001 E2.07541
G1 X167.954 Y35.742 E2.09412
G1 X168.465 Y36.528 E2.11283
G1 X168.907 Y37.356 E2.13156
G1 X169.276 Y38.218 E2.15028
G1 X169.571 Y39.108 E2.16899
G1 X169.789 Y40.02 E2.1877
G1 X169.929 Y40.948 E2.20643
G1 X169.987 Y41.809 E2.22365
G1 X170 Y42.437 E2.23618
G1 X169.999 Y65.409 E2.69462
G1 X169.989 Y66.134 E2.70908
G1 X169.936 Y67.07 E2.72779
G1 X169.804 Y67.999 E2.74652
G1 X169.592 Y68.912 E2.76522
G1 X169.304 Y69.805 E2.78395
G1 X168.941 Y70.67 E2.80267
G1 X168.506 Y71.5 E2.82137
G1 X168.001 Y72.291 E2.8401
G1 X167.431 Y73.035 E2.8588
G1 X166.903 Y73.623 E2.87457
G1 X166.791 Y73.739 E2.87779
G1 X166.112 Y74.385 E2.89649
G1 X165.38 Y74.971 E2.9152
G1 X164.6 Y75.493 E2.93393
G1 X163.779 Y75.946 E2.95265
G1 X162.922 Y76.328 E2.97137
G1 X162.036 Y76.635 E2.99008
G1 X161.127 Y76.866 E3.0088
G1 X160.202 Y77.018 E3.02751
G1 X159.075 Y77.096 E3.05005
G1 X158.321 Y77.108 E3.0651
G1 X76.824 Y77.108 E4.69146
G1 X76.667 Y77.107 E4.69459
G1 X75.966 Y77.097 E4.70859
G1 X75.03 Y77.044 E4.72729
G1 X74.101 Y76.911 E4.74602
G1 X73.188 Y76.699 E4.76473
G1 X72.295 Y76.411 E4.78345
G1 X71.431 Y76.047 E4.80216
G1 X70.6 Y75.611 E4.82089
G1 X69.81 Y75.106 E4.8396
G1 X69.066 Y74.536 E4.8583
G1 X68.379 Y73.911 E4.87684
G1 X68.266 Y73.799 E4.88001
G1 X67.629 Y73.111 E4.89872
G1 X67.053 Y72.371 E4.91744
G1 X66.541 Y71.585 E4.93616
G1 X66.099 Y70.758 E4.95487
G1 X65.728 Y69.896 E4.9736
G1 X65.433 Y69.006 E4.99231
G1 X65.214 Y68.094 E5.01103
G1 X65.074 Y67.167 E5.02974
G1 X65.013 Y66.246 E5.04816
G1 X65.005 Y65.908 E5.0549
G1 X65.003 Y65.489 E5.06326
G1 X65.027 Y63.833 E5.09632
G1 X65.027 Y61.198 E5.1489
G1 X65.001 Y59.905 E5.17471
G1 X65.001 Y42.617 E5.51971
G1 X65.011 Y41.952 E5.53298
G1 X65.065 Y41.015 E5.55171
G1 X65.199 Y40.087 E5.57042
G1 X65.411 Y39.173 E5.58915
G1 X65.7 Y38.281 E5.60786
G1 X66.065 Y37.417 E5.62658
G1 X66.501 Y36.587 E5.64529
G0 F6000 X66.898 Y36.701
G1 F1200 X67.403 Y35.93 E5.66368
G1 X67.972 Y35.207 E5.68204
G1 X68.602 Y34.535 E5.70042
G1 X69.288 Y33.921 E5.71879
G1 X70.024 Y33.369 E5.73715
G1 X70.806 Y32.882 E5.75554
G1 X71.627 Y32.466 E5.7739
G1 X72.481 Y32.122 E5.79228
G1 X73.361 Y31.853 E5.81064
G1 X74.262 Y31.662 E5.82902
G1 X75.176 Y31.55 E5.8474
G1 X75.712 Y31.521 E5.85811
G1 X76.33 Y31.508 E5.87045
G1 X158.293 Y31.508 E7.50611
G1 X158.445 Y31.509 E7.50914
G1 X159.143 Y31.519 E7.52307
G1 X160.062 Y31.572 E7.54144
G1 X160.973 Y31.705 E7.55981
G1 X161.869 Y31.916 E7.57818
G1 X162.743 Y32.204 E7.59655
G1 X163.59 Y32.567 E7.61494
G1 X164.401 Y33.002 E7.6333
G1 X165.171 Y33.506 E7.65167
G1 X165.895 Y34.075 E7.67004
G1 X166.567 Y34.705 E7.68843
G1 X167.182 Y35.39 E7.7068
G1 X167.735 Y36.126 E7.72517
G1 X168.222 Y36.907 E7.74354
G1 X168.639 Y37.728 E7.76191
G1 X168.984 Y38.582 E7.78029
G1 X169.253 Y39.462 E7.79866
G1 X169.445 Y40.363 E7.81704
G1 X169.558 Y41.276 E7.8354
G1 X169.587 Y41.82 E7.84627
G1 X169.6 Y42.437 E7.85859
G1 X169.599 Y65.403 E8.3169
G1 X169.589 Y66.128 E8.33137
G1 X169.536 Y67.047 E8.34974
G1 X169.404 Y67.958 E8.36811
G1 X169.193 Y68.855 E8.3865
G1 X168.906 Y69.729 E8.40485
G1 X168.543 Y70.575 E8.42323
G1 X168.108 Y71.387 E8.44161
G1 X167.605 Y72.158 E8.45998
G1 X167.037 Y72.882 E8.47834
G1 X166.504 Y73.461 E8.49405
G1 X165.836 Y74.095 E8.51243
G1 X165.116 Y74.668 E8.53079
G1 X164.349 Y75.177 E8.54916
G1 X163.54 Y75.618 E8.56755
G1 X162.697 Y75.986 E8.5859
G1 X161.824 Y76.28 E8.60429
G1 X160.93 Y76.498 E8.62265
G1 X160.019 Y76.636 E8.64104
G1 X159.068 Y76.696 E8.66005
G1 X158.321 Y76.708 E8.67496
G1 X76.824 Y76.708 E10.30132
G1 X76.673 Y76.707 E10.30434
G1 X75.972 Y76.697 E10.31833
G1 X75.053 Y76.644 E10.3367
G1 X74.142 Y76.511 E10.35507
G1 X73.246 Y76.3 E10.37344
G1 X72.371 Y76.012 E10.39182
G1 X71.525 Y75.649 E10.41019
G1 X70.714 Y75.214 E10.42856
G1 X69.943 Y74.71 E10.44694
G1 X69.219 Y74.141 E10.46532
G1 X68.661 Y73.627 E10.48046
G1 X68.548 Y73.515 E10.48363
G1 X67.923 Y72.839 E10.50201
G1 X67.359 Y72.111 E10.52038
G1 X66.86 Y71.337 E10.53876
G1 X66.43 Y70.523 E10.55713
G1 X66.073 Y69.675 E10.57549
G1 X65.79 Y68.799 E10.59387
G1 X65.584 Y67.901 E10.61225
G1 X65.458 Y66.989 E10.63062
G1 X65.413 Y66.237 E10.64566
G1 X65.405 Y65.899 E10.6524
G1 X65.403 Y65.494 E10.66049
G1 X65.427 Y63.838 E10.69354
G1 X65.427 Y61.189 E10.7464
G1 X65.401 Y59.905 E10.77203
G1 X65.401 Y42.623 E11.11691
G1 X65.411 Y41.958 E11.13018
G1 X65.465 Y41.039 E11.14856
G1 X65.598 Y40.128 E11.16693
G1 X65.81 Y39.232 E11.1853
G1 X66.099 Y38.357 E11.20369
G1 X66.463 Y37.512 E11.22205
G1 X66.898 Y36.701 E11.24042
G0 F6000 X67.295 Y36.817
G1 F1200 X67.798 Y36.066 E11.25846
G1 X68.366 Y35.364 E11.27648
G1 X68.993 Y34.714 E11.2945
G1 X69.675 Y34.122 E11.31252
G1 X70.407 Y33.593 E11.33054
G1 X71.183 Y33.131 E11.34857
G1 X71.997 Y32.74 E11.36659
G1 X72.842 Y32.421 E11.38461
G1 X73.712 Y32.179 E11.40263
G1 X74.6 Y32.015 E11.42065
G1 X75.723 Y31.921 E11.44314
G1 X76.33 Y31.908 E11.45526
G1 X158.293 Y31.908 E13.09092
G1 X158.439 Y31.909 E13.09383
G1 X159.137 Y31.919 E13.10776
G1 X160.039 Y31.972 E13.1258
G1 X160.932 Y32.104 E13.14381
G1 X161.81 Y32.315 E13.16183
G1 X162.666 Y32.603 E13.17985
G1 X163.493 Y32.965 E13.19787
G1 X164.285 Y33.4 E13.2159
G1 X165.036 Y33.902 E13.23393
G1 X165.739 Y34.469 E13.25195
G1 X166.389 Y35.096 E13.26997
G1 X166.981 Y35.778 E13.288
G1 X167.511 Y36.509 E13.30602
G1 X167.973 Y37.285 E13.32404
G1 X168.366 Y38.098 E13.34206
G1 X168.684 Y38.943 E13.36008
G1 X168.927 Y39.813 E13.3781
G1 X169.092 Y40.701 E13.39613
G1 X169.187 Y41.831 E13.41876
G1 X169.2 Y42.437 E13.43085
G1 X169.199 Y65.398 E13.88906
G1 X169.189 Y66.123 E13.90353
G1 X169.137 Y67.024 E13.92154
G1 X169.005 Y67.918 E13.93958
G1 X168.794 Y68.796 E13.9576
G1 X168.507 Y69.652 E13.97562
G1 X168.145 Y70.479 E13.99363
G1 X167.711 Y71.272 E14.01167
G1 X167.209 Y72.022 E14.02968
G1 X166.643 Y72.726 E14.04771
G1 X166.216 Y73.183 E14.06019
G1 X165.56 Y73.804 E14.07822
G1 X164.853 Y74.365 E14.09623
G1 X164.098 Y74.861 E14.11426
G1 X163.302 Y75.288 E14.13228
G1 X162.472 Y75.644 E14.1503
G1 X161.614 Y75.924 E14.16832
G1 X160.734 Y76.128 E14.18634
G1 X159.839 Y76.253 E14.20438
G1 X159.061 Y76.296 E14.21993
G1 X158.321 Y76.308 E14.2347
G1 X76.824 Y76.308 E15.86106
G1 X76.679 Y76.307 E15.86395
G1 X75.978 Y76.297 E15.87794
G1 X75.076 Y76.244 E15.89597
G1 X74.183 Y76.112 E15.91399
G1 X73.304 Y75.901 E15.93203
G1 X72.448 Y75.613 E15.95005
G1 X71.621 Y75.251 E15.96806
G1 X70.829 Y74.817 E15.98609
G1 X70.079 Y74.314 E16.00411
G1 X69.376 Y73.747 E16.02213
G1 X68.83 Y73.23 E16.03714
G1 X68.217 Y72.567 E16.05516
G1 X67.665 Y71.852 E16.07318
G1 X67.179 Y71.091 E16.0912
G1 X66.762 Y70.29 E16.10922
G1 X66.418 Y69.455 E16.12725
G1 X66.149 Y68.593 E16.14527
G1 X65.957 Y67.71 E16.1633
G1 X65.844 Y66.814 E16.18132
G1 X65.813 Y66.227 E16.19305
G1 X65.805 Y65.889 E16.1998
G1 X65.803 Y65.5 E16.20756
G1 X65.827 Y63.844 E16.24061
G1 X65.827 Y61.226 E16.29286
G1 X65.801 Y59.905 E16.31923
G1 X65.801 Y42.629 E16.66399
G1 X65.811 Y41.964 E16.67726
G1 X65.865 Y41.062 E16.69529
G1 X65.998 Y40.169 E16.71331
G1 X66.209 Y39.291 E16.73133
G1 X66.498 Y38.435 E16.74936
G1 X66.861 Y37.608 E16.76738
G1 X67.295 Y36.817 E16.78539
G1 F2700 E11.78539
G0 F6000 X75.339 Y60.265
G0 X75.843 Y60.769
G0 X81.333 Y61.108
G1 F2700 E16.78539
G1 F1200 X158.8 Y61.108 E18.33133
G1 X158.8 Y65.908 E18.42711
G1 X76.2 Y65.908 E20.07549
G1 X76.2 Y65.308 E20.08746
G1 X79.218 Y65.308 E20.14769
G1 X79.329 Y65.274 E20.15
G1 X79.66 Y65.053 E20.15795
G1 X79.734 Y64.964 E20.16026
G1 X81.333 Y61.108 E20.24356
G0 F6000 X81.6 Y61.508
G1 F1200 X158.4 Y61.508 E21.77619
G1 X158.4 Y65.508 E21.85601
G1 X79.699 Y65.508 E23.42658
G1 X79.882 Y65.386 E23.43097
G1 X80.039 Y65.234 E23.43533
G1 X80.103 Y65.117 E23.43799
G1 X81.6 Y61.508 E23.51596
G0 F6000 X81.867 Y61.908
G1 F1200 X158 Y61.908 E25.03528
G1 X158 Y65.108 E25.09914
G1 X80.54 Y65.108 E26.64493
G1 X81.867 Y61.908 E26.71407
G0 F6000 X82.134 Y62.308
G1 F1200 X157.6 Y62.308 E28.22007
G1 X157.6 Y64.708 E28.26797
G1 X81.138 Y64.708 E29.79385
G1 X82.134 Y62.308 E29.8457
G0 F6000 X82.401 Y62.708
G1 F1200 X157.2 Y62.708 E31.3384
G1 X157.2 Y64.308 E31.37033
G1 X81.738 Y64.308 E32.87625
G1 X82.401 Y62.708 E32.91082
G0 F6000 X82.668 Y63.108
G1 F1200 X156.8 Y63.108 E34.3902
G1 X156.8 Y63.908 E34.40616
G1 X82.337 Y63.908 E35.89215
G1 X82.668 Y63.108 E35.90943
G1 F2700 E30.90943
;MESH:SSD-Holder.stl
G0 F6000 X82.668 Y60.773
G0 X82.668 Y59.688
G0 X77 Y59.108
;TYPE:WALL-INNER
G1 F2700 E35.90943
G1 F1200 X77 Y43.108 E36.22873
G1 X158 Y43.108 E37.84517
G1 X158 Y59.108 E38.16447
G1 X77 Y59.108 E39.78091
G0 F6000 X76.6 Y59.508
G1 F1200 X76.6 Y42.708 E40.11617
G1 X158.4 Y42.708 E41.74858
G1 X158.4 Y59.508 E42.08384
G1 X76.6 Y59.508 E43.71625
G0 F6000 X76.2 Y59.908
;TYPE:WALL-OUTER
G1 F1200 X76.2 Y42.308 E44.06748
G1 X158.8 Y42.308 E45.71585
G1 X158.8 Y59.908 E46.06708
G1 X76.2 Y59.908 E47.71545
G0 F6000 X76.47 Y59.638
G0 X77.11 Y58.718
G0 X77.39 Y58.718
;TYPE:SKIN
G1 F1200 X77.39 Y43.498 E48.01918
G1 X157.61 Y43.498 E49.62006
G1 X157.61 Y58.718 E49.92379
G1 X77.39 Y58.718 E51.52467
G0 F6000 X77.79 Y58.557
G1 F1200 X77.549 Y58.315 E51.53148
G0 F6000 X77.549 Y57.75
G1 F1200 X78.356 Y58.557 E51.55426
G0 F6000 X78.922 Y58.557
G1 F1200 X77.549 Y57.184 E51.59301
G0 F6000 X77.549 Y56.618
G1 F1200 X79.487 Y58.557 E51.64771
G0 F6000 X80.053 Y58.557
G1 F1200 X77.549 Y56.053 E51.71838
G0 F6000 X77.549 Y55.487
G1 F1200 X80.619 Y58.557 E51.80503
G0 F6000 X81.185 Y58.557
G1 F1200 X77.549 Y54.921 E51.90764
G0 F6000 X77.549 Y54.356
G1 F1200 X81.75 Y58.557 E52.0262
G0 F6000 X82.316 Y58.557
G1 F1200 X77.549 Y53.79 E52.16074
G0 F6000 X77.549 Y53.224
G1 F1200 X82.882 Y58.557 E52.31125
G0 F6000 X83.447 Y58.557
G1 F1200 X77.549 Y52.658 E52.47771
G0 F6000 X77.549 Y52.093
G1 F1200 X84.013 Y58.557 E52.66014
G0 F6000 X84.579 Y58.557
G1 F1200 X77.549 Y51.527 E52.85854
G0 F6000 X77.549 Y50.961
G1 F1200 X85.144 Y58.557 E53.07291
G0 F6000 X85.71 Y58.557
G1 F1200 X77.549 Y50.396 E53.30323
G0 F6000 X77.549 Y49.83
G1 F1200 X86.276 Y58.557 E53.54952
G0 F6000 X86.841 Y58.557
G1 F1200 X77.549 Y49.264 E53.81178
G0 F6000 X77.549 Y48.699
G1 F1200 X87.407 Y58.557 E54.08999
G0 F6000 X87.973 Y58.557
G1 F1200 X77.549 Y48.133 E54.38418
G0 F6000 X77.549 Y47.567
G1 F1200 X88.538 Y58.557 E54.69433
G0 F6000 X89.104 Y58.557
G1 F1200 X77.549 Y47.002 E55.02043
G0 F6000 X77.549 Y46.436
G1 F1200 X89.67 Y58.557 E55.36251
G0 F6000 X90.236 Y58.557
G1 F1200 X77.549 Y45.87 E55.72057
G0 F6000 X77.549 Y45.305
G1 F1200 X90.801 Y58.557 E56.09457
G0 F6000 X91.367 Y58.557
G1 F1200 X77.549 Y44.739 E56.48454
G0 F6000 X77.549 Y44.173
G1 F1200 X91.933 Y58.557 E56.89049
G0 F6000 X92.498 Y58.557
G1 F1200 X77.598 Y43.657 E57.311
G0 F6000 X78.164 Y43.657
G1 F1200 X93.064 Y58.557 E57.73151
G0 F6000 X93.63 Y58.557
G1 F1200 X78.729 Y43.657 E58.15203
G0 F6000 X79.295 Y43.657
G1 F1200 X94.195 Y58.557 E58.57254
G0 F6000 X94.761 Y58.557
G1 F1200 X79.861 Y43.657 E58.99305
G0 F6000 X80.427 Y43.657
G1 F1200 X95.327 Y58.557 E59.41356
G0 F6000 X95.892 Y58.557
G1 F1200 X80.992 Y43.657 E59.83407
G0 F6000 X81.558 Y43.657
G1 F1200 X96.458 Y58.557 E60.25458
G0 F6000 X97.024 Y58.557
G1 F1200 X82.124 Y43.657 E60.67509
G0 F6000 X82.689 Y43.657
G1 F1200 X97.589 Y58.557 E61.09561
G0 F6000 X98.155 Y58.557
G1 F1200 X83.255 Y43.657 E61.51612
G0 F6000 X83.821 Y43.657
G1 F1200 X98.721 Y58.557 E61.93663
G0 F6000 X99.286 Y58.557
G1 F1200 X84.386 Y43.657 E62.35714
G0 F6000 X84.952 Y43.657
G1 F1200 X99.852 Y58.557 E62.77765
G0 F6000 X100.418 Y58.557
G1 F1200 X85.518 Y43.657 E63.19816
G0 F6000 X86.083 Y43.657
G1 F1200 X100.984 Y58.557 E63.61868
G0 F6000 X101.549 Y58.557
G1 F1200 X86.649 Y43.657 E64.03919
G0 F6000 X87.215 Y43.657
G1 F1200 X102.115 Y58.557 E64.4597
G0 F6000 X102.681 Y58.557
G1 F1200 X87.78 Y43.657 E64.88023
G0 F6000 X88.346 Y43.657
G1 F1200 X103.246 Y58.557 E65.30074
G0 F6000 X103.812 Y58.557
G1 F1200 X88.912 Y43.657 E65.72125
G0 F6000 X89.477 Y43.657
G1 F1200 X104.378 Y58.557 E66.14177
G0 F6000 X104.943 Y58.557
G1 F1200 X90.043 Y43.657 E66.56228
G0 F6000 X90.609 Y43.657
G1 F1200 X105.509 Y58.557 E66.98279
G0 F6000 X106.075 Y58.557
G1 F1200 X91.175 Y43.657 E67.4033
G0 F6000 X91.74 Y43.657
G1 F1200 X106.64 Y58.557 E67.82381
G0 F6000 X107.206 Y58.557
G1 F1200 X92.306 Y43.657 E68.24432
G0 F6000 X92.872 Y43.657
G1 F1200 X107.772 Y58.557 E68.66483
G0 F6000 X108.337 Y58.557
G1 F1200 X93.437 Y43.657 E69.08534
G0 F6000 X94.003 Y43.657
G1 F1200 X108.903 Y58.557 E69.50585
G0 F6000 X109.469 Y58.557
G1 F1200 X94.569 Y43.657 E69.92636
G0 F6000 X95.134 Y43.657
G1 F1200 X110.035 Y58.557 E70.34689
G0 F6000 X110.6 Y58.557
G1 F1200 X95.7 Y43.657 E70.7674
G0 F6000 X96.266 Y43.657
G1 F1200 X111.166 Y58.557 E71.18791
G0 F6000 X111.732 Y58.557
G1 F1200 X96.831 Y43.657 E71.60843
G0 F6000 X97.397 Y43.657
G1 F1200 X112.297 Y58.557 E72.02894
G0 F6000 X112.863 Y58.557
G1 F1200 X97.963 Y43.657 E72.44945
G0 F6000 X98.528 Y43.657
G1 F1200 X113.429 Y58.557 E72.86998
G0 F6000 X113.994 Y58.557
G1 F1200 X99.094 Y43.657 E73.29049
G0 F6000 X99.66 Y43.657
G1 F1200 X114.56 Y58.557 E73.711
G0 F6000 X115.126 Y58.557
G1 F1200 X100.226 Y43.657 E74.13151
G0 F6000 X100.791 Y43.657
G1 F1200 X115.691 Y58.557 E74.55202
G0 F6000 X116.257 Y58.557
G1 F1200 X101.357 Y43.657 E74.97253
G0 F6000 X101.923 Y43.657
G1 F1200 X116.823 Y58.557 E75.39304
G0 F6000 X117.388 Y58.557
G1 F1200 X102.488 Y43.657 E75.81355
G0 F6000 X103.054 Y43.657
G1 F1200 X117.954 Y58.557 E76.23406
G0 F6000 X118.52 Y58.557
G1 F1200 X103.62 Y43.657 E76.65457
G0 F6000 X104.185 Y43.657
G1 F1200 X119.085 Y58.557 E77.07508
G0 F6000 X119.651 Y58.557
G1 F1200 X104.751 Y43.657 E77.49559
G0 F6000 X105.317 Y43.657
G1 F1200 X120.217 Y58.557 E77.9161
G0 F6000 X120.783 Y58.557
G1 F1200 X105.882 Y43.657 E78.33662
G0 F6000 X106.448 Y43.657
G1 F1200 X121.348 Y58.557 E78.75713
G0 F6000 X121.914 Y58.557
G1 F1200 X107.014 Y43.657 E79.17764
G0 F6000 X107.579 Y43.657
G1 F1200 X122.48 Y58.557 E79.59817
G0 F6000 X123.045 Y58.557
G1 F1200 X108.145 Y43.657 E80.01868
G0 F6000 X108.711 Y43.657
G1 F1200 X123.611 Y58.557 E80.43919
G0 F6000 X124.177 Y58.557
G1 F1200 X109.276 Y43.657 E80.85971
G0 F6000 X109.842 Y43.657
G1 F1200 X124.742 Y58.557 E81.28022
G0 F6000 X125.308 Y58.557
G1 F1200 X110.408 Y43.657 E81.70073
G0 F6000 X110.974 Y43.657
G1 F1200 X125.874 Y58.557 E82.12124
G0 F6000 X126.439 Y58.557
G1 F1200 X111.539 Y43.657 E82.54175
G0 F6000 X112.105 Y43.657
G1 F1200 X127.005 Y58.557 E82.96226
G0 F6000 X127.571 Y58.557
G1 F1200 X112.671 Y43.657 E83.38277
G0 F6000 X113.236 Y43.657
