;FLAVOR:Marlin
;TIME:50936
;Filament used: 21.7856m
;Layer height: 0.12
;MINX:65.001
;MINY:94.5
;MINZ:0.12
;MAXX:170
;MAXY:140.5
;MAXZ:63.96
;Generated with Cura_SteamEngine 4.5.0
M140 S80
M105
M190 S80
M104 S240
M105
M109 S240
M82 ;absolute extrusion mode
; Ender 3 Custom Start G-code
G92 E0 ; Reset Extruder
G28 ; Home all axes
G1 Z2.0 F3000 ; Move Z Axis up little to prevent scratching of Heat Bed
G1 X0.1 Y20 Z0.3 F5000.0 ; Move to start position
G1 X0.1 Y200.0 Z0.3 F1500.0 E15 ; Draw the first line
G1 X0.4 Y200.0 Z0.3 F5000.0 ; Move to side a little
G1 X0.4 Y20 Z0.3 F1500.0 E30 ; Draw the second line
G92 E0 ; Reset Extruder
G1 Z2.0 F3000 ; Move Z Axis up little to prevent scratching of Heat Bed
G1 X5 Y20 Z0.3 F5000.0 ; Move over to prevent blob squish
G92 E0
G92 E0
G1 F2700 E-5
;LAYER_COUNT:533
;LAYER:0
M107
G0 F6000 X69.64 Y96.541 Z0.12
;TYPE:SKIRT
G1 F2700 E0
G1 F1200 X70.427 Y96.031 E0.01871
G1 X71.255 Y95.59 E0.03744
G1 X72.117 Y95.221 E0.05615
G1 X73.008 Y94.927 E0.07487
G1 X73.92 Y94.709 E0.09358
G1 X74.847 Y94.571 E0.11229
G1 X75.701 Y94.513 E0.12937
G1 X76.33 Y94.5 E0.14192
G1 X158.293 Y94.5 E1.77758
G1 X158.451 Y94.501 E1.78074
G1 X159.149 Y94.511 E1.79467
G1 X160.085 Y94.565 E1.81338
G1 X161.013 Y94.697 E1.83208
G1 X161.927 Y94.909 E1.85081
G1 X162.819 Y95.198 E1.86952
G1 X163.684 Y95.561 E1.88824
G1 X164.514 Y95.997 E1.90695
G1 X165.305 Y96.502 E1.92568
G1 X166.049 Y97.073 E1.94439
G1 X166.742 Y97.705 E1.96311
G1 X167.379 Y98.393 E1.98182
G1 X167.954 Y99.134 E2.00054
G1 X168.465 Y99.92 E2.01925
G1 X168.907 Y100.748 E2.03798
G1 X169.276 Y101.61 E2.05669
G1 X169.571 Y102.5 E2.0754
G1 X169.789 Y103.412 E2.09411
G1 X169.929 Y104.34 E2.11284
G1 X169.987 Y105.201 E2.13006
G1 X170 Y105.829 E2.1426
G1 X169.999 Y128.801 E2.60103
G1 X169.989 Y129.526 E2.6155
G1 X169.936 Y130.462 E2.63421
G1 X169.804 Y131.391 E2.65293
G1 X169.592 Y132.304 E2.67164
G1 X169.304 Y133.197 E2.69036
G1 X168.941 Y134.062 E2.70908
G1 X168.506 Y134.892 E2.72778
G1 X168.001 Y135.683 E2.74651
G1 X167.431 Y136.427 E2.76522
G1 X166.903 Y137.015 E2.78099
G1 X166.791 Y137.131 E2.78421
G1 X166.112 Y137.777 E2.80291
G1 X165.38 Y138.363 E2.82162
G1 X164.6 Y138.885 E2.84035
G1 X163.779 Y139.338 E2.85906
G1 X162.922 Y139.72 E2.87779
G1 X162.036 Y140.027 E2.8965
G1 X161.127 Y140.258 E2.91522
G1 X160.202 Y140.41 E2.93392
G1 X159.075 Y140.488 E2.95647
G1 X158.321 Y140.5 E2.97152
G1 X76.824 Y140.5 E4.59788
G1 X76.667 Y140.499 E4.60101
G1 X75.966 Y140.489 E4.615
G1 X75.03 Y140.436 E4.63371
G1 X74.101 Y140.303 E4.65244
G1 X73.188 Y140.091 E4.67114
G1 X72.295 Y139.803 E4.68987
G1 X71.431 Y139.439 E4.70858
G1 X70.6 Y139.003 E4.7273
G1 X69.81 Y138.498 E4.74602
G1 X69.066 Y137.928 E4.76472
G1 X68.379 Y137.303 E4.78325
G1 X68.266 Y137.191 E4.78643
G1 X67.629 Y136.503 E4.80514
G1 X67.053 Y135.763 E4.82385
G1 X66.541 Y134.977 E4.84257
G1 X66.099 Y134.15 E4.86129
G1 X65.728 Y133.288 E4.88001
G1 X65.433 Y132.398 E4.89873
G1 X65.214 Y131.486 E4.91744
G1 X65.074 Y130.559 E4.93615
G1 X65.013 Y129.638 E4.95457
G1 X65.005 Y129.3 E4.96132
G1 X65.003 Y128.881 E4.96968
G1 X65.027 Y127.225 E5.00273
G1 X65.027 Y124.59 E5.05532
G1 X65.001 Y123.297 E5.08112
G1 X65.001 Y106.009 E5.42612
G1 X65.011 Y105.344 E5.4394
G1 X65.065 Y104.407 E5.45813
G1 X65.199 Y103.479 E5.47684
G1 X65.411 Y102.565 E5.49556
G1 X65.7 Y101.673 E5.51427
G1 X66.065 Y100.809 E5.53299
G1 X66.501 Y99.979 E5.5517
G1 X67.007 Y99.189 E5.57042
G1 X67.578 Y98.445 E5.58914
G1 X68.21 Y97.752 E5.60786
G1 X68.899 Y97.116 E5.62657
G1 X69.64 Y96.541 E5.64529
G0 F6000 X70.024 Y96.761
G1 F1200 X70.806 Y96.274 E5.66367
G1 X71.627 Y95.858 E5.68204
G1 X72.481 Y95.514 E5.70041
G1 X73.361 Y95.245 E5.71877
G1 X74.262 Y95.054 E5.73715
G1 X75.176 Y94.942 E5.75553
G1 X75.712 Y94.913 E5.76624
G1 X76.33 Y94.9 E5.77858
G1 X158.293 Y94.9 E7.41424
G1 X158.445 Y94.901 E7.41727
G1 X159.143 Y94.911 E7.4312
G1 X160.062 Y94.964 E7.44957
G1 X160.973 Y95.097 E7.46794
G1 X161.869 Y95.308 E7.48631
G1 X162.743 Y95.596 E7.50468
G1 X163.59 Y95.959 E7.52307
G1 X164.401 Y96.394 E7.54143
G1 X165.171 Y96.898 E7.5598
G1 X165.895 Y97.467 E7.57818
G1 X166.567 Y98.097 E7.59656
G1 X167.182 Y98.782 E7.61493
G1 X167.735 Y99.518 E7.6333
G1 X168.222 Y100.299 E7.65167
G1 X168.639 Y101.12 E7.67004
G1 X168.984 Y101.974 E7.68842
G1 X169.253 Y102.854 E7.70679
G1 X169.445 Y103.755 E7.72517
G1 X169.558 Y104.668 E7.74353
G1 X169.587 Y105.212 E7.7544
G1 X169.6 Y105.829 E7.76672
G1 X169.599 Y128.795 E8.22503
G1 X169.589 Y129.52 E8.2395
G1 X169.536 Y130.439 E8.25787
G1 X169.404 Y131.35 E8.27624
G1 X169.193 Y132.247 E8.29463
G1 X168.906 Y133.121 E8.31299
G1 X168.543 Y133.967 E8.33136
G1 X168.108 Y134.779 E8.34974
G1 X167.605 Y135.55 E8.36811
G1 X167.037 Y136.274 E8.38648
G1 X166.504 Y136.853 E8.40218
G1 X165.836 Y137.487 E8.42056
G1 X165.116 Y138.06 E8.43892
G1 X164.349 Y138.569 E8.45729
G1 X163.54 Y139.01 E8.47568
G1 X162.697 Y139.378 E8.49404
G1 X161.824 Y139.672 E8.51242
G1 X160.93 Y139.89 E8.53078
G1 X160.019 Y140.028 E8.54917
G1 X159.068 Y140.088 E8.56819
G1 X158.321 Y140.1 E8.5831
G1 X76.824 Y140.1 E10.20946
G1 X76.673 Y140.099 E10.21247
G1 X75.972 Y140.089 E10.22646
G1 X75.053 Y140.036 E10.24483
G1 X74.142 Y139.903 E10.2632
G1 X73.246 Y139.692 E10.28157
G1 X72.371 Y139.404 E10.29996
G1 X71.525 Y139.041 E10.31833
G1 X70.714 Y138.606 E10.33669
G1 X69.943 Y138.102 E10.35507
G1 X69.219 Y137.533 E10.37345
G1 X68.661 Y137.019 E10.38859
G1 X68.548 Y136.907 E10.39177
G1 X67.923 Y136.231 E10.41014
G1 X67.359 Y135.503 E10.42852
G1 X66.86 Y134.729 E10.44689
G1 X66.43 Y133.915 E10.46527
G1 X66.073 Y133.067 E10.48363
G1 X65.79 Y132.191 E10.502
G1 X65.584 Y131.293 E10.52038
G1 X65.458 Y130.381 E10.53876
G1 X65.413 Y129.629 E10.55379
G1 X65.405 Y129.291 E10.56054
G1 X65.403 Y128.886 E10.56862
G1 X65.427 Y127.23 E10.60167
G1 X65.427 Y124.581 E10.65453
G1 X65.401 Y123.297 E10.68016
G1 X65.401 Y106.015 E11.02504
G1 X65.411 Y105.35 E11.03832
G1 X65.465 Y104.431 E11.05669
G1 X65.598 Y103.52 E11.07506
G1 X65.81 Y102.624 E11.09343
G1 X66.099 Y101.749 E11.11182
G1 X66.463 Y100.904 E11.13018
G1 X66.898 Y100.093 E11.14855
G1 X67.403 Y99.322 E11.16694
G1 X67.972 Y98.599 E11.1853
G1 X68.602 Y97.927 E11.20369
G1 X69.288 Y97.313 E11.22206
G1 X70.024 Y96.761 E11.24042
G0 F6000 X70.407 Y96.985
G1 F1200 X71.183 Y96.523 E11.25844
G1 X71.997 Y96.132 E11.27646
G1 X72.842 Y95.813 E11.29449
G1 X73.712 Y95.571 E11.31251
G1 X74.6 Y95.407 E11.33053
G1 X75.723 Y95.313 E11.35302
G1 X76.33 Y95.3 E11.36513
G1 X158.293 Y95.3 E13.00079
G1 X158.439 Y95.301 E13.00371
G1 X159.137 Y95.311 E13.01764
G1 X160.039 Y95.364 E13.03567
G1 X160.932 Y95.496 E13.05368
G1 X161.81 Y95.707 E13.0717
G1 X162.666 Y95.995 E13.08973
G1 X163.493 Y96.357 E13.10774
G1 X164.285 Y96.792 E13.12577
G1 X165.036 Y97.294 E13.1438
G1 X165.739 Y97.861 E13.16183
G1 X166.389 Y98.488 E13.17985
G1 X166.981 Y99.17 E13.19787
G1 X167.511 Y99.901 E13.21589
G1 X167.973 Y100.677 E13.23391
G1 X168.366 Y101.49 E13.25193
G1 X168.684 Y102.335 E13.26995
G1 X168.927 Y103.205 E13.28798
G1 X169.092 Y104.093 E13.306
G1 X169.187 Y105.223 E13.32863
G1 X169.2 Y105.829 E13.34073
G1 X169.199 Y128.79 E13.79894
G1 X169.189 Y129.515 E13.81341
G1 X169.137 Y130.416 E13.83142
G1 X169.005 Y131.31 E13.84945
G1 X168.794 Y132.188 E13.86747
G1 X168.507 Y133.044 E13.88549
G1 X168.145 Y133.871 E13.9035
G1 X167.711 Y134.664 E13.92155
G1 X167.209 Y135.414 E13.93956
G1 X166.643 Y136.118 E13.95758
G1 X166.216 Y136.575 E13.97006
G1 X165.56 Y137.196 E13.98809
G1 X164.853 Y137.757 E14.0061
G1 X164.098 Y138.253 E14.02413
G1 X163.302 Y138.68 E14.04215
G1 X162.472 Y139.036 E14.06018
G1 X161.614 Y139.316 E14.07819
G1 X160.734 Y139.52 E14.09622
G1 X159.839 Y139.645 E14.11425
G1 X159.061 Y139.688 E14.1298
G1 X158.321 Y139.7 E14.14457
G1 X76.824 Y139.7 E15.77093
G1 X76.679 Y139.699 E15.77382
G1 X75.978 Y139.689 E15.78781
G1 X75.076 Y139.636 E15.80585
G1 X74.183 Y139.504 E15.82386
G1 X73.304 Y139.293 E15.8419
G1 X72.448 Y139.005 E15.85992
G1 X71.621 Y138.643 E15.87794
G1 X70.829 Y138.209 E15.89596
G1 X70.079 Y137.706 E15.91398
G1 X69.376 Y137.139 E15.93201
G1 X68.83 Y136.622 E15.94701
G1 X68.217 Y135.959 E15.96503
G1 X67.665 Y135.244 E15.98306
G1 X67.179 Y134.483 E16.00108
G1 X66.762 Y133.682 E16.0191
G1 X66.418 Y132.847 E16.03712
G1 X66.149 Y131.985 E16.05514
G1 X65.957 Y131.102 E16.07317
G1 X65.844 Y130.206 E16.0912
G1 X65.813 Y129.619 E16.10293
G1 X65.805 Y129.281 E16.10967
G1 X65.803 Y128.892 E16.11744
G1 X65.827 Y127.236 E16.15049
G1 X65.827 Y124.618 E16.20273
G1 X65.801 Y123.297 E16.2291
G1 X65.801 Y106.021 E16.57386
G1 X65.811 Y105.356 E16.58713
G1 X65.865 Y104.454 E16.60516
G1 X65.998 Y103.561 E16.62318
G1 X66.209 Y102.683 E16.6412
G1 X66.498 Y101.827 E16.65923
G1 X66.861 Y101 E16.67726
G1 X67.295 Y100.209 E16.69526
G1 X67.798 Y99.458 E16.7133
G1 X68.366 Y98.756 E16.73132
G1 X68.993 Y98.106 E16.74934
G1 X69.675 Y97.514 E16.76736
G1 X70.407 Y96.985 E16.78539
G1 F2700 E11.78539
G0 F6000 X75.339 Y123.657
G0 X75.843 Y124.161
G0 X81.333 Y124.5
G1 F2700 E16.78539
G1 F1200 X158.8 Y124.5 E18.33133
G1 X158.8 Y129.3 E18.42711
G1 X76.2 Y129.3 E20.07549
G1 X76.2 Y128.7 E20.08746
G1 X79.218 Y128.7 E20.14769
G1 X79.329 Y128.666 E20.15
G1 X79.66 Y128.445 E20.15795
G1 X79.734 Y128.356 E20.16026
G1 X81.333 Y124.5 E20.24356
G0 F6000 X81.6 Y124.9
G1 F1200 X158.4 Y124.9 E21.77619
G1 X158.4 Y128.9 E21.85601
G1 X79.699 Y128.9 E23.42658
G1 X79.882 Y128.778 E23.43097
G1 X80.039 Y128.626 E23.43533
G1 X80.103 Y128.509 E23.43799
G1 X81.6 Y124.9 E23.51596
G0 F6000 X81.867 Y125.3
G1 F1200 X158 Y125.3 E25.03528
G1 X158 Y128.5 E25.09914
G1 X80.54 Y128.5 E26.64493
G1 X81.867 Y125.3 E26.71407
G0 F6000 X82.134 Y125.7
G1 F1200 X157.6 Y125.7 E28.22007
G1 X157.6 Y128.1 E28.26797
G1 X81.138 Y128.1 E29.79385
G1 X82.134 Y125.7 E29.8457
G0 F6000 X82.401 Y126.1
G1 F1200 X157.2 Y126.1 E31.3384
G1 X157.2 Y127.7 E31.37033
G1 X81.738 Y127.7 E32.87625
G1 X82.401 Y126.1 E32.91082
G0 F6000 X82.668 Y126.5
G1 F1200 X156.8 Y126.5 E34.3902
G1 X156.8 Y127.3 E34.40616
G1 X82.337 Y127.3 E35.89215
G1 X82.668 Y126.5 E35.90943
G1 F2700 E30.90943
;MESH:SSD-Holder.stl
G0 F6000 X82.668 Y124.165
G0 X82.668 Y123.08
G0 X77.4 Y122.1
;TYPE:WALL-INNER
G1 F2700 E35.90943
G1 F1200 X77.4 Y106.9 E36.21276
G1 X157.6 Y106.9 E37.81324
G1 X157.6 Y122.1 E38.11657
G1 X77.4 Y122.1 E39.71705
G0 F6000 X77 Y122.5
G1 F1200 X77 Y106.5 E40.03635
G1 X158 Y106.5 E41.65279
G1 X158 Y122.5 E41.97209
G1 X77 Y122.5 E43.58853
G0 F6000 X76.6 Y122.9
G1 F1200 X76.6 Y106.1 E43.92379
G1 X158.4 Y106.1 E45.5562
G1 X158.4 Y122.9 E45.89146
G1 X76.6 Y122.9 E47.52387
G0 F6000 X76.2 Y123.3
;TYPE:WALL-OUTER
G1 F1200 X76.2 Y105.7 E47.8751
G1 X158.8 Y105.7 E49.52347
G1 X158.8 Y123.3 E49.8747
G1 X76.2 Y123.3 E51.52307
G0 F6000 X76.47 Y123.03
G0 X77.51 Y121.71
G0 X77.79 Y121.71
;TYPE:SKIN
G1 F1200 X77.79 Y107.29 E51.81084
G1 X157.21 Y107.29 E53.39575
G1 X157.21 Y121.71 E53.68351
G1 X77.79 Y121.71 E55.26843
G0 F6000 X78.556 Y121.548
G1 F1200 X77.95 Y120.942 E55.28553
G0 F6000 X77.95 Y120.376
G1 F1200 X79.122 Y121.548 E55.31861
G0 F6000 X79.688 Y121.548
G1 F1200 X77.95 Y119.81 E55.36766
G0 F6000 X77.95 Y119.245
G1 F1200 X80.253 Y121.548 E55.43265
G0 F6000 X80.819 Y121.548
G1 F1200 X77.95 Y118.679 E55.51362
G0 F6000 X77.95 Y118.113
G1 F1200 X81.385 Y121.548 E55.61056
G0 F6000 X81.95 Y121.548
G1 F1200 X77.95 Y117.548 E55.72345
G0 F6000 X77.95 Y116.982
G1 F1200 X82.516 Y121.548 E55.85232
G0 F6000 X83.082 Y121.548
G1 F1200 X77.95 Y116.416 E55.99715
G0 F6000 X77.95 Y115.85
G1 F1200 X83.647 Y121.548 E56.15795
G0 F6000 X84.213 Y121.548
G1 F1200 X77.95 Y115.285 E56.3347
G0 F6000 X77.95 Y114.719
G1 F1200 X84.779 Y121.548 E56.52743
G0 F6000 X85.344 Y121.548
G1 F1200 X77.95 Y114.153 E56.73612
G0 F6000 X77.95 Y113.588
G1 F1200 X85.91 Y121.548 E56.96077
G0 F6000 X86.476 Y121.548
G1 F1200 X77.95 Y113.022 E57.20139
G0 F6000 X77.95 Y112.456
G1 F1200 X87.042 Y121.548 E57.45799
G0 F6000 X87.607 Y121.548
G1 F1200 X77.95 Y111.891 E57.73053
G0 F6000 X77.95 Y111.325
G1 F1200 X88.173 Y121.548 E58.01904
G0 F6000 X88.739 Y121.548
G1 F1200 X77.95 Y110.759 E58.32353
G0 F6000 X77.95 Y110.194
G1 F1200 X89.304 Y121.548 E58.64397
G0 F6000 X89.87 Y121.548
G1 F1200 X77.95 Y109.628 E58.98037
G0 F6000 X77.95 Y109.062
G1 F1200 X90.436 Y121.548 E59.33276
G0 F6000 X91.001 Y121.548
G1 F1200 X77.95 Y108.497 E59.70108
G0 F6000 X77.95 Y107.931
G1 F1200 X91.567 Y121.548 E60.08539
G0 F6000 X92.133 Y121.548
G1 F1200 X78.034 Y107.449 E60.48329
G0 F6000 X78.599 Y107.449
G1 F1200 X92.698 Y121.548 E60.88119
G0 F6000 X93.264 Y121.548
G1 F1200 X79.165 Y107.449 E61.2791
G0 F6000 X79.731 Y107.449
G1 F1200 X93.83 Y121.548 E61.677
G0 F6000 X94.395 Y121.548
G1 F1200 X80.296 Y107.449 E62.07491
G0 F6000 X80.862 Y107.449
G1 F1200 X94.961 Y121.548 E62.47281
G0 F6000 X95.527 Y121.548
G1 F1200 X81.428 Y107.449 E62.87071
G0 F6000 X81.993 Y107.449
G1 F1200 X96.092 Y121.548 E63.26862
G0 F6000 X96.658 Y121.548
G1 F1200 X82.559 Y107.449 E63.66652
G0 F6000 X83.125 Y107.449
G1 F1200 X97.224 Y121.548 E64.06443
G0 F6000 X97.79 Y121.548
G1 F1200 X83.691 Y107.449 E64.46233
G0 F6000 X84.256 Y107.449
G1 F1200 X98.355 Y121.548 E64.86024
G0 F6000 X98.921 Y121.548
G1 F1200 X84.822 Y107.449 E65.25814
G0 F6000 X85.388 Y107.449
G1 F1200 X99.487 Y121.548 E65.65604
G0 F6000 X100.052 Y121.548
G1 F1200 X85.953 Y107.449 E66.05395
G0 F6000 X86.519 Y107.449
G1 F1200 X100.618 Y121.548 E66.45185
G0 F6000 X101.184 Y121.548
G1 F1200 X87.085 Y107.449 E66.84976
G0 F6000 X87.65 Y107.449
G1 F1200 X101.749 Y121.548 E67.24766
G0 F6000 X102.315 Y121.548
G1 F1200 X88.216 Y107.449 E67.64557
G0 F6000 X88.782 Y107.449
G1 F1200 X102.881 Y121.548 E68.04347
G0 F6000 X103.446 Y121.548
G1 F1200 X89.347 Y107.449 E68.44137
G0 F6000 X89.913 Y107.449
G1 F1200 X104.012 Y121.548 E68.83928
G0 F6000 X104.578 Y121.548
G1 F1200 X90.479 Y107.449 E69.23718
G0 F6000 X91.044 Y107.449
G1 F1200 X105.143 Y121.548 E69.63509
G0 F6000 X105.709 Y121.548
G1 F1200 X91.61 Y107.449 E70.03299
G0 F6000 X92.176 Y107.449
G1 F1200 X106.275 Y121.548 E70.4309
G0 F6000 X106.841 Y121.548
G1 F1200 X92.742 Y107.449 E70.8288
G0 F6000 X93.307 Y107.449
G1 F1200 X107.406 Y121.548 E71.2267
G0 F6000 X107.972 Y121.548
G1 F1200 X93.873 Y107.449 E71.62461
G0 F6000 X94.439 Y107.449
G1 F1200 X108.538 Y121.548 E72.02251
G0 F6000 X109.103 Y121.548
G1 F1200 X95.004 Y107.449 E72.42042
G0 F6000 X95.57 Y107.449
G1 F1200 X109.669 Y121.548 E72.81832
G0 F6000 X110.235 Y121.548
G1 F1200 X96.136 Y107.449 E73.21623
G0 F6000 X96.701 Y107.449
G1 F1200 X110.8 Y121.548 E73.61413
G0 F6000 X111.366 Y121.548
G1 F1200 X97.267 Y107.449 E74.01203
G0 F6000 X97.833 Y107.449
G1 F1200 X111.932 Y121.548 E74.40994
G0 F6000 X112.497 Y121.548
G1 F1200 X98.398 Y107.449 E74.80784
G0 F6000 X98.964 Y107.449
G1 F1200 X113.063 Y121.548 E75.20575
G0 F6000 X113.629 Y121.548
G1 F1200 X99.53 Y107.449 E75.60365
G0 F6000 X100.095 Y107.449
G1 F1200 X114.194 Y121.548 E76.00155
G0 F6000 X114.76 Y121.548
G1 F1200 X100.661 Y107.449 E76.39946
G0 F6000 X101.227 Y107.449
G1 F1200 X115.326 Y121.548 E76.79736
G0 F6000 X115.891 Y121.548
G1 F1200 X101.792 Y107.449 E77.19527
G0 F6000 X102.358 Y107.449
G1 F1200 X116.457 Y121.548 E77.59317
G0 F6000 X117.023 Y121.548
G1 F1200 X102.924 Y107.449 E77.99108
G0 F6000 X103.49 Y107.449
G1 F1200 X117.589 Y121.548 E78.38898
G0 F6000 X118.154 Y121.548
G1 F1200 X104.055 Y107.449 E78.78688
G0 F6000 X104.621 Y107.449
G1 F1200 X118.72 Y121.548 E79.18479
G0 F6000 X119.286 Y121.548
G1 F1200 X105.187 Y107.449 E79.58269
G0 F6000 X105.752 Y107.449
G1 F1200 X119.851 Y121.548 E79.9806
G0 F6000 X120.417 Y121.548
G1 F1200 X106.318 Y107.449 E80.3785
G0 F6000 X106.884 Y107.449
G1 F1200 X120.983 Y121.548 E80.77641
G0 F6000 X121.548 Y121.548
G1 F1200 X107.449 Y107.449 E81.17431
G0 F6000 X108.015 Y107.449
G1 F1200 X122.114 Y121.548 E81.57221
G0 F6000 X122.68 Y121.548
G1 F1200 X108.581 Y107.449 E81.97012
G0 F6000 X109.146 Y107.449
G1 F1200 X123.245 Y121.548 E82.36802
G0 F6000 X123.811 Y121.548
G1 F1200 X109.712 Y107.449 E82.76593
G0 F6000 X110.278 Y107.449
G1 F1200 X124.377 Y121.548 E83.16383
G0 F6000 X124.942 Y121.548
G1 F1200 X110.843 Y107.449 E83.56174
